ONMI/img/googlePlay.svg

<svg width="110" height="26" viewBox="0 0 110 26" fill="none" xmlns="http://www.w3.org/2000/svg">
<path d="M35.4582 22.154C34.7332 22.154 34.0657 22.029 33.4557 21.779C32.8457 21.524 32.3157 21.154 31.8657 20.669C31.4157 20.184 31.0657 19.594 30.8157 18.899C30.5657 18.204 30.4407 17.414 30.4407 16.529C30.4407 15.364 30.6532 14.364 31.0782 13.529C31.5032 12.689 32.0932 12.044 32.8482 11.594C33.6032 11.139 34.4732 10.9115 35.4582 10.9115C36.7282 10.9115 37.7407 11.2065 38.4957 11.7965C39.2557 12.3865 39.7732 13.2015 40.0482 14.2415L38.4582 14.5265C38.2382 13.8815 37.8832 13.3665 37.3932 12.9815C36.9032 12.5965 36.2882 12.4015 35.5482 12.3965C34.7832 12.3915 34.1457 12.5615 33.6357 12.9065C33.1307 13.2515 32.7507 13.7365 32.4957 14.3615C32.2407 14.9815 32.1107 15.704 32.1057 16.529C32.1007 17.354 32.2257 18.0765 32.4807 18.6965C32.7357 19.3115 33.1182 19.7915 33.6282 20.1365C34.1432 20.4815 34.7832 20.6565 35.5482 20.6615C36.1632 20.6715 36.6907 20.559 37.1307 20.324C37.5757 20.084 37.9282 19.734 38.1882 19.274C38.4482 18.814 38.6157 18.249 38.6907 17.579H36.5907V16.319H40.3557C40.3657 16.409 40.3732 16.529 40.3782 16.679C40.3832 16.824 40.3857 16.9165 40.3857 16.9565C40.3857 17.9565 40.1932 18.849 39.8082 19.634C39.4232 20.419 38.8632 21.0365 38.1282 21.4865C37.3932 21.9315 36.5032 22.154 35.4582 22.154ZM44.989 22.154C44.179 22.154 43.4765 21.9715 42.8815 21.6065C42.2865 21.2415 41.8265 20.739 41.5015 20.099C41.1815 19.454 41.0215 18.7115 41.0215 17.8715C41.0215 17.0265 41.1865 16.284 41.5165 15.644C41.8465 14.999 42.309 14.499 42.904 14.144C43.499 13.784 44.194 13.604 44.989 13.604C45.799 13.604 46.5015 13.7865 47.0965 14.1515C47.6915 14.5165 48.1515 15.019 48.4765 15.659C48.8015 16.299 48.964 17.0365 48.964 17.8715C48.964 18.7165 48.799 19.4615 48.469 20.1065C48.144 20.7465 47.684 21.249 47.089 21.614C46.494 21.974 45.794 22.154 44.989 22.154ZM44.989 20.6765C45.764 20.6765 46.3415 20.4165 46.7215 19.8965C47.1065 19.3715 47.299 18.6965 47.299 17.8715C47.299 17.0265 47.104 16.3515 46.714 15.8465C46.329 15.3365 45.754 15.0815 44.989 15.0815C44.464 15.0815 44.0315 15.2015 43.6915 15.4415C43.3515 15.6765 43.099 16.004 42.934 16.424C42.769 16.839 42.6865 17.3215 42.6865 17.8715C42.6865 18.7215 42.8815 19.4015 43.2715 19.9115C43.6615 20.4215 44.234 20.6765 44.989 20.6765ZM53.7205 22.154C52.9105 22.154 52.208 21.9715 51.613 21.6065C51.018 21.2415 50.558 20.739 50.233 20.099C49.913 19.454 49.753 18.7115 49.753 17.8715C49.753 17.0265 49.918 16.284 50.248 15.644C50.578 14.999 51.0405 14.499 51.6355 14.144C52.2305 13.784 52.9255 13.604 53.7205 13.604C54.5305 13.604 55.233 13.7865 55.828 14.1515C56.423 14.5165 56.883 15.019 57.208 15.659C57.533 16.299 57.6955 17.0365 57.6955 17.8715C57.6955 18.7165 57.5305 19.4615 57.2005 20.1065C56.8755 20.7465 56.4155 21.249 55.8205 21.614C55.2255 21.974 54.5255 22.154 53.7205 22.154ZM53.7205 20.6765C54.4955 20.6765 55.073 20.4165 55.453 19.8965C55.838 19.3715 56.0305 18.6965 56.0305 17.8715C56.0305 17.0265 55.8355 16.3515 55.4455 15.8465C55.0605 15.3365 54.4855 15.0815 53.7205 15.0815C53.1955 15.0815 52.763 15.2015 52.423 15.4415C52.083 15.6765 51.8305 16.004 51.6655 16.424C51.5005 16.839 51.418 17.3215 51.418 17.8715C51.418 18.7215 51.613 19.4015 52.003 19.9115C52.393 20.4215 52.9655 20.6765 53.7205 20.6765ZM62.272 25.754C61.837 25.754 61.4145 25.6865 61.0045 25.5515C60.5995 25.4165 60.2295 25.2165 59.8945 24.9515C59.5595 24.6915 59.282 24.369 59.062 23.984L60.5095 23.249C60.6845 23.594 60.9345 23.8465 61.2595 24.0065C61.5845 24.1665 61.927 24.2465 62.287 24.2465C62.732 24.2465 63.112 24.1665 63.427 24.0065C63.742 23.8515 63.9795 23.6165 64.1395 23.3015C64.3045 22.9865 64.3845 22.5965 64.3795 22.1315V19.8665H64.567V13.829H65.9545V22.1465C65.9545 22.3615 65.947 22.5665 65.932 22.7615C65.917 22.9565 65.8895 23.1515 65.8495 23.3465C65.7345 23.8915 65.5145 24.3415 65.1895 24.6965C64.8695 25.0515 64.4595 25.3165 63.9595 25.4915C63.4645 25.6665 62.902 25.754 62.272 25.754ZM62.152 22.154C61.397 22.154 60.7445 21.9665 60.1945 21.5915C59.6495 21.2165 59.227 20.7065 58.927 20.0615C58.632 19.4115 58.4845 18.6815 58.4845 17.8715C58.4845 17.0565 58.6345 16.329 58.9345 15.689C59.2345 15.044 59.6595 14.5365 60.2095 14.1665C60.7645 13.7915 61.422 13.604 62.182 13.604C62.947 13.604 63.5895 13.7915 64.1095 14.1665C64.6345 14.5365 65.0295 15.044 65.2945 15.689C65.5645 16.334 65.6995 17.0615 65.6995 17.8715C65.6995 18.6815 65.5645 19.409 65.2945 20.054C65.0245 20.699 64.627 21.2115 64.102 21.5915C63.577 21.9665 62.927 22.154 62.152 22.154ZM62.3695 20.7365C62.8845 20.7365 63.3045 20.614 63.6295 20.369C63.9545 20.124 64.192 19.7865 64.342 19.3565C64.492 18.9265 64.567 18.4315 64.567 17.8715C64.567 17.3115 64.4895 16.8165 64.3345 16.3865C64.1845 15.9565 63.9495 15.6215 63.6295 15.3815C63.3145 15.1415 62.912 15.0215 62.422 15.0215C61.902 15.0215 61.4745 15.149 61.1395 15.404C60.8045 15.659 60.5545 16.0015 60.3895 16.4315C60.2295 16.8615 60.1495 17.3415 60.1495 17.8715C60.1495 18.4065 60.2295 18.8915 60.3895 19.3265C60.5545 19.7565 60.7995 20.099 61.1245 20.354C61.4545 20.609 61.8695 20.7365 62.3695 20.7365ZM67.8014 21.929V10.904H69.3689V21.929H67.8014ZM74.8046 22.154C73.9996 22.154 73.2921 21.979 72.6821 21.629C72.0771 21.274 71.6046 20.7815 71.2646 20.1515C70.9296 19.5165 70.7621 18.7815 70.7621 17.9465C70.7621 17.0615 70.9271 16.294 71.2571 15.644C71.5921 14.994 72.0571 14.4915 72.6521 14.1365C73.2471 13.7815 73.9396 13.604 74.7296 13.604C75.5546 13.604 76.2571 13.7965 76.8371 14.1815C77.4171 14.5615 77.8496 15.104 78.1346 15.809C78.4246 16.514 78.5396 17.3515 78.4796 18.3215H76.9121V17.7515C76.9021 16.8115 76.7221 16.1165 76.3721 15.6665C76.0271 15.2165 75.4996 14.9915 74.7896 14.9915C74.0046 14.9915 73.4146 15.239 73.0196 15.734C72.6246 16.229 72.4271 16.944 72.4271 17.879C72.4271 18.769 72.6246 19.459 73.0196 19.949C73.4146 20.434 73.9846 20.6765 74.7296 20.6765C75.2196 20.6765 75.6421 20.5665 75.9971 20.3465C76.3571 20.1215 76.6371 19.8015 76.8371 19.3865L78.3746 19.874C78.0596 20.599 77.5821 21.1615 76.9421 21.5615C76.3021 21.9565 75.5896 22.154 74.8046 22.154ZM71.9171 18.3215V17.099H77.6996V18.3215H71.9171ZM82.347 21.929V11.129H86.712C86.817 11.129 86.947 11.134 87.102 11.144C87.257 11.149 87.4045 11.164 87.5445 11.189C88.1445 11.284 88.6445 11.489 89.0445 11.804C89.4495 12.119 89.752 12.5165 89.952 12.9965C90.152 13.4765 90.252 14.0065 90.252 14.5865C90.252 15.1715 90.152 15.704 89.952 16.184C89.752 16.664 89.4495 17.0615 89.0445 17.3765C88.6445 17.6915 88.1445 17.8965 87.5445 17.9915C87.4045 18.0115 87.2545 18.0265 87.0945 18.0365C86.9395 18.0465 86.812 18.0515 86.712 18.0515H83.9145V21.929H82.347ZM83.9145 16.5665H86.652C86.752 16.5665 86.862 16.5615 86.982 16.5515C87.107 16.5415 87.2245 16.524 87.3345 16.499C87.6545 16.424 87.912 16.2865 88.107 16.0865C88.302 15.8815 88.442 15.6465 88.527 15.3815C88.612 15.1165 88.6545 14.8515 88.6545 14.5865C88.6545 14.3215 88.612 14.059 88.527 13.799C88.442 13.534 88.302 13.3015 88.107 13.1015C87.912 12.8965 87.6545 12.7565 87.3345 12.6815C87.2245 12.6515 87.107 12.6315 86.982 12.6215C86.862 12.6115 86.752 12.6065 86.652 12.6065H83.9145V16.5665ZM91.4922 21.929V10.904H93.0597V21.929H91.4922ZM97.1903 22.154C96.5903 22.154 96.0878 22.044 95.6828 21.824C95.2778 21.599 94.9703 21.304 94.7603 20.939C94.5553 20.569 94.4528 20.164 94.4528 19.724C94.4528 19.314 94.5253 18.954 94.6703 18.644C94.8153 18.334 95.0303 18.0715 95.3153 17.8565C95.6003 17.6365 95.9503 17.459 96.3653 17.324C96.7253 17.219 97.1328 17.1265 97.5878 17.0465C98.0428 16.9665 98.5203 16.8915 99.0203 16.8215C99.5253 16.7515 100.025 16.6815 100.52 16.6115L99.9503 16.9265C99.9603 16.2915 99.8253 15.8215 99.5453 15.5165C99.2703 15.2065 98.7953 15.0515 98.1203 15.0515C97.6953 15.0515 97.3053 15.1515 96.9503 15.3515C96.5953 15.5465 96.3478 15.8715 96.2078 16.3265L94.7453 15.8765C94.9453 15.1815 95.3253 14.629 95.8853 14.219C96.4503 13.809 97.2003 13.604 98.1353 13.604C98.8603 13.604 99.4903 13.729 100.025 13.979C100.565 14.224 100.96 14.614 101.21 15.149C101.34 15.414 101.42 15.694 101.45 15.989C101.48 16.284 101.495 16.6015 101.495 16.9415V21.929H100.108V20.0765L100.378 20.3165C100.043 20.9365 99.6153 21.399 99.0953 21.704C98.5803 22.004 97.9453 22.154 97.1903 22.154ZM97.4678 20.8715C97.9128 20.8715 98.2953 20.794 98.6153 20.639C98.9353 20.479 99.1928 20.2765 99.3878 20.0315C99.5828 19.7865 99.7103 19.5315 99.7703 19.2665C99.8553 19.0265 99.9028 18.7565 99.9128 18.4565C99.9278 18.1565 99.9353 17.9165 99.9353 17.7365L100.445 17.924C99.9503 17.999 99.5003 18.0665 99.0953 18.1265C98.6903 18.1865 98.3228 18.2465 97.9928 18.3065C97.6678 18.3615 97.3778 18.429 97.1228 18.509C96.9078 18.584 96.7153 18.674 96.5453 18.779C96.3803 18.884 96.2478 19.0115 96.1478 19.1615C96.0528 19.3115 96.0053 19.494 96.0053 19.709C96.0053 19.919 96.0578 20.114 96.1628 20.294C96.2678 20.469 96.4278 20.609 96.6428 20.714C96.8578 20.819 97.1328 20.8715 97.4678 20.8715ZM103.675 25.529L105.242 21.2615L105.265 22.5215L101.732 13.829H103.367L106.007 20.5415H105.527L108.047 13.829H109.637L105.167 25.529H103.675Z" fill="black"/>
<path d="M33.459 8.79616C33.1206 8.79616 32.8091 8.73783 32.5245 8.62116C32.2398 8.50216 31.9925 8.3295 31.7825 8.10316C31.5725 7.87683 31.4091 7.6015 31.2925 7.27716C31.1758 6.95283 31.1175 6.58416 31.1175 6.17116C31.1175 5.6275 31.2166 5.16083 31.415 4.77116C31.6133 4.37916 31.8886 4.07816 32.241 3.86816C32.5933 3.65583 32.9993 3.54966 33.459 3.54966C34.0516 3.54966 34.5241 3.68733 34.8765 3.96266C35.2311 4.238 35.4726 4.61833 35.601 5.10366L34.859 5.23666C34.7563 4.93566 34.5906 4.69533 34.362 4.51566C34.1333 4.336 33.8463 4.245 33.501 4.24266C33.144 4.24033 32.8465 4.31966 32.6085 4.48066C32.3728 4.64166 32.1955 4.868 32.0765 5.15966C31.9575 5.449 31.8968 5.78616 31.8945 6.17116C31.8921 6.55616 31.9505 6.89333 32.0695 7.18266C32.1885 7.46966 32.367 7.69366 32.605 7.85466C32.8453 8.01566 33.144 8.09733 33.501 8.09966C33.788 8.10433 34.0341 8.05183 34.2395 7.94216C34.4471 7.83016 34.6116 7.66683 34.733 7.45216C34.8543 7.2375 34.9325 6.97383 34.9675 6.66116H33.9875V6.07316H35.7445C35.7491 6.11516 35.7526 6.17116 35.755 6.24116C35.7573 6.30883 35.7585 6.352 35.7585 6.37066C35.7585 6.83733 35.6686 7.25383 35.489 7.62016C35.3093 7.9865 35.048 8.27466 34.705 8.48466C34.362 8.69233 33.9466 8.79616 33.459 8.79616ZM38.1326 8.79616C37.7569 8.79616 37.4267 8.7145 37.1421 8.55116C36.8597 8.3855 36.6392 8.15566 36.4806 7.86166C36.3242 7.56533 36.2461 7.22233 36.2461 6.83266C36.2461 6.41966 36.3231 6.0615 36.4771 5.75816C36.6334 5.45483 36.8504 5.22033 37.1281 5.05466C37.4057 4.889 37.7289 4.80616 38.0976 4.80616C38.4826 4.80616 38.8104 4.896 39.0811 5.07566C39.3517 5.253 39.5536 5.50616 39.6866 5.83516C39.8219 6.16416 39.8756 6.555 39.8476 7.00766H39.1161V6.74166C39.1114 6.303 39.0274 5.97866 38.8641 5.76866C38.7031 5.55866 38.4569 5.45366 38.1256 5.45366C37.7592 5.45366 37.4839 5.56916 37.2996 5.80016C37.1152 6.03116 37.0231 6.36483 37.0231 6.80116C37.0231 7.2165 37.1152 7.5385 37.2996 7.76716C37.4839 7.9935 37.7499 8.10666 38.0976 8.10666C38.3262 8.10666 38.5234 8.05533 38.6891 7.95266C38.8571 7.84766 38.9877 7.69833 39.0811 7.50466L39.7986 7.73216C39.6516 8.0705 39.4287 8.333 39.1301 8.51966C38.8314 8.704 38.4989 8.79616 38.1326 8.79616ZM36.7851 7.00766V6.43716H39.4836V7.00766H36.7851ZM42.7958 8.69116C42.5578 8.73783 42.3245 8.75766 42.0958 8.75066C41.8672 8.74366 41.663 8.69933 41.4833 8.61766C41.3037 8.536 41.1683 8.40766 41.0773 8.23266C40.9957 8.07633 40.9513 7.91766 40.9443 7.75666C40.9397 7.59333 40.9373 7.409 40.9373 7.20366V3.86116H41.6723V7.16866C41.6723 7.32033 41.6735 7.45216 41.6758 7.56416C41.6805 7.67616 41.705 7.77066 41.7493 7.84766C41.8333 7.99233 41.9663 8.07516 42.1483 8.09616C42.3327 8.11483 42.5485 8.10666 42.7958 8.07166V8.69116ZM40.2128 5.49916V4.91116H42.7958V5.49916H40.2128ZM45.0642 4.29166V3.58116H45.7957V4.29166H45.0642ZM45.0642 8.69116V4.91116H45.7957V8.69116H45.0642ZM49.0097 8.69116C48.7717 8.73783 48.5384 8.75766 48.3097 8.75066C48.081 8.74366 47.8769 8.69933 47.6972 8.61766C47.5175 8.536 47.3822 8.40766 47.2912 8.23266C47.2095 8.07633 47.1652 7.91766 47.1582 7.75666C47.1535 7.59333 47.1512 7.409 47.1512 7.20366V3.86116H47.8862V7.16866C47.8862 7.32033 47.8874 7.45216 47.8897 7.56416C47.8944 7.67616 47.9189 7.77066 47.9632 7.84766C48.0472 7.99233 48.1802 8.07516 48.3622 8.09616C48.5465 8.11483 48.7624 8.10666 49.0097 8.07166V8.69116ZM46.4267 5.49916V4.91116H49.0097V5.49916H46.4267ZM52.8495 8.79616C52.4715 8.79616 52.1437 8.711 51.866 8.54066C51.5884 8.37033 51.3737 8.13583 51.222 7.83716C51.0727 7.53616 50.998 7.18966 50.998 6.79766C50.998 6.40333 51.075 6.05683 51.229 5.75816C51.383 5.45716 51.5989 5.22383 51.8765 5.05816C52.1542 4.89016 52.4785 4.80616 52.8495 4.80616C53.2275 4.80616 53.5554 4.89133 53.833 5.06166C54.1107 5.232 54.3254 5.4665 54.477 5.76516C54.6287 6.06383 54.7045 6.408 54.7045 6.79766C54.7045 7.192 54.6275 7.53966 54.4735 7.84066C54.3219 8.13933 54.1072 8.37383 53.8295 8.54416C53.5519 8.71216 53.2252 8.79616 52.8495 8.79616ZM52.8495 8.10666C53.2112 8.10666 53.4807 7.98533 53.658 7.74266C53.8377 7.49766 53.9275 7.18266 53.9275 6.79766C53.9275 6.40333 53.8365 6.08833 53.6545 5.85266C53.4749 5.61466 53.2065 5.49566 52.8495 5.49566C52.6045 5.49566 52.4027 5.55166 52.244 5.66366C52.0854 5.77333 51.9675 5.92616 51.8905 6.12216C51.8135 6.31583 51.775 6.541 51.775 6.79766C51.775 7.19433 51.866 7.51166 52.048 7.74966C52.23 7.98766 52.4972 8.10666 52.8495 8.10666ZM58.1266 8.69116V6.83266C58.1266 6.68566 58.1138 6.53516 58.0881 6.38116C58.0648 6.22483 58.0181 6.08016 57.9481 5.94716C57.8805 5.81416 57.7836 5.70683 57.6576 5.62516C57.534 5.5435 57.3718 5.50266 57.1711 5.50266C57.0405 5.50266 56.9168 5.52483 56.8001 5.56916C56.6835 5.61116 56.5808 5.68 56.4921 5.77566C56.4058 5.87133 56.337 5.99733 56.2856 6.15366C56.2366 6.31 56.2121 6.50016 56.2121 6.72416L55.7571 6.55266C55.7571 6.20966 55.8213 5.9075 55.9496 5.64616C56.078 5.3825 56.2623 5.17716 56.5026 5.03016C56.743 4.88316 57.0335 4.80966 57.3741 4.80966C57.6355 4.80966 57.8548 4.85166 58.0321 4.93566C58.2095 5.01966 58.353 5.1305 58.4626 5.26816C58.5746 5.4035 58.6598 5.55166 58.7181 5.71266C58.7765 5.87366 58.8161 6.03116 58.8371 6.18516C58.8581 6.33916 58.8686 6.4745 58.8686 6.59116V8.69116H58.1266ZM55.4701 8.69116V4.91116H56.1246V6.00316H56.2121V8.69116H55.4701Z" fill="black"/>
<path d="M4.16645 1.45395C3.26142 0.952727 2.19881 0.964316 1.29956 1.4612L11.839 11.2033L15.3796 7.65555L4.16645 1.45395Z" fill="black"/>
<path d="M0.683034 2.40332C0.425131 2.83085 0.277344 3.32008 0.277344 3.8387V21.6832C0.277344 22.1857 0.412091 22.6646 0.655505 23.0833L11.2773 12.3129L0.683034 2.40332Z" fill="black"/>
<path d="M20.0571 10.3892L16.6114 8.56323L12.7395 12.2803L17.4847 16.4832L20.0586 15.1191C20.9849 14.6261 21.5395 13.7422 21.5395 12.7534C21.538 11.7647 20.9849 10.8807 20.0571 10.3892Z" fill="black"/>
<path d="M12.2195 13.4033L1.59741 24.0025C2.05836 24.2649 2.56411 24.4033 3.07275 24.4033C3.56405 24.4033 4.05823 24.2793 4.51052 24.0299L16.5574 17.3958L12.2195 13.4033Z" fill="black"/>
</svg>

<svg width="110" height="26" fill="none" xmlns="http://www.w3.org/2000/svg"><path d="M35.458 22.154a5.23 5.23 0 01-2.002-.375 4.526 4.526 0 01-1.59-1.11 5.106 5.106 0 01-1.05-1.77c-.25-.695-.375-1.485-.375-2.37 0-1.165.212-2.165.637-3 .425-.84 1.015-1.485 1.77-1.935.755-.455 1.625-.682 2.61-.682 1.27 0 2.283.294 3.038.884.76.59 1.277 1.405 1.552 2.446l-1.59.284c-.22-.644-.575-1.16-1.065-1.544-.49-.385-1.105-.58-1.845-.585-.765-.005-1.402.165-1.912.51-.505.345-.885.83-1.14 1.454-.255.62-.385 1.343-.39 2.168-.005.825.12 1.547.375 2.168.255.614.637 1.095 1.147 1.44.515.345 1.155.52 1.92.524.615.01 1.143-.102 1.583-.337.445-.24.797-.59 1.057-1.05.26-.46.428-1.025.503-1.695h-2.1v-1.26h3.765a10.927 10.927 0 01.03.637c0 1-.193 1.893-.578 2.678a4.395 4.395 0 01-1.68 1.852c-.735.445-1.625.668-2.67.668zm9.531 0c-.81 0-1.512-.183-2.107-.547a3.69 3.69 0 01-1.38-1.508c-.32-.645-.48-1.387-.48-2.227 0-.846.165-1.588.495-2.228a3.628 3.628 0 011.387-1.5c.595-.36 1.29-.54 2.085-.54.81 0 1.513.183 2.108.548a3.69 3.69 0 011.38 1.507c.325.64.487 1.377.487 2.213 0 .845-.165 1.59-.495 2.235a3.69 3.69 0 01-1.38 1.507c-.595.36-1.295.54-2.1.54zm0-1.477c.775 0 1.353-.26 1.733-.78.384-.525.577-1.2.577-2.025 0-.846-.195-1.52-.585-2.025-.385-.51-.96-.765-1.725-.765-.525 0-.957.12-1.297.36-.34.235-.593.562-.758.982-.165.415-.247.898-.247 1.448 0 .85.195 1.53.585 2.04.39.51.962.765 1.717.765zm8.732 1.477c-.81 0-1.513-.183-2.108-.547a3.69 3.69 0 01-1.38-1.508c-.32-.645-.48-1.387-.48-2.227 0-.846.165-1.588.495-2.228a3.628 3.628 0 011.388-1.5c.594-.36 1.29-.54 2.084-.54.81 0 1.513.183 2.108.548a3.69 3.69 0 011.38 1.507c.325.64.488 1.377.488 2.213 0 .845-.165 1.59-.495 2.235a3.69 3.69 0 01-1.38 1.507c-.596.36-1.295.54-2.1.54zm0-1.477c.775 0 1.352-.26 1.732-.78.385-.525.578-1.2.578-2.025 0-.846-.195-1.52-.585-2.025-.386-.51-.96-.765-1.725-.765-.525 0-.958.12-1.298.36-.34.235-.593.562-.758.982-.164.415-.247.898-.247 1.448 0 .85.195 1.53.585 2.04.39.51.962.765 1.718.765zm8.551 5.077a4.02 4.02 0 01-1.267-.203 3.622 3.622 0 01-1.11-.6 3.25 3.25 0 01-.833-.967l1.448-.735c.175.345.425.598.75.758.325.16.667.24 1.027.24.445 0 .825-.08 1.14-.24.315-.155.553-.39.712-.706.166-.314.246-.704.24-1.17v-2.265h.188V13.83h1.388v8.317c0 .215-.008.42-.023.616-.015.194-.043.39-.082.584-.115.546-.335.995-.66 1.35-.32.355-.73.62-1.23.795-.495.175-1.058.263-1.688.263zm-.12-3.6c-.755 0-1.407-.188-1.958-.563a3.712 3.712 0 01-1.267-1.53c-.295-.65-.443-1.38-.443-2.19 0-.814.15-1.542.45-2.182.3-.645.726-1.152 1.276-1.523.554-.375 1.212-.562 1.972-.562.765 0 1.407.188 1.927.563.526.37.92.877 1.186 1.522.27.645.404 1.372.404 2.183 0 .81-.135 1.537-.404 2.182-.27.645-.668 1.158-1.193 1.538-.525.375-1.175.562-1.95.562zm.218-1.418c.515 0 .934-.122 1.26-.367.325-.245.562-.582.712-1.012.15-.43.225-.925.225-1.485s-.077-1.055-.232-1.485c-.15-.43-.385-.766-.705-1.005-.316-.24-.718-.36-1.208-.36-.52 0-.947.127-1.282.382a2.287 2.287 0 00-.75 1.027c-.16.43-.24.91-.24 1.44 0 .536.08 1.02.24 1.456.164.43.41.772.734 1.027.33.255.745.383 1.245.383zm5.43 1.194V10.904h1.568v11.025H67.8zm7.004.225c-.805 0-1.513-.175-2.123-.525a3.733 3.733 0 01-1.417-1.478c-.335-.634-.503-1.37-.503-2.204 0-.886.165-1.653.495-2.303.335-.65.8-1.152 1.395-1.508.595-.354 1.288-.532 2.078-.532.825 0 1.527.193 2.107.578.58.38 1.013.922 1.298 1.627.29.705.405 1.543.345 2.513h-1.568v-.57c-.01-.94-.19-1.636-.54-2.085-.345-.45-.872-.675-1.582-.675-.785 0-1.375.247-1.77.742s-.593 1.21-.593 2.145c0 .89.198 1.58.593 2.07.395.485.965.727 1.71.727.49 0 .912-.11 1.267-.33.36-.224.64-.544.84-.96l1.538.488a3.65 3.65 0 01-1.433 1.688 3.989 3.989 0 01-2.137.592zm-2.888-3.832V17.1H77.7v1.223h-5.783zm10.43 3.607v-10.8h4.365c.105 0 .235.005.39.015.155.005.302.02.442.045.6.095 1.1.3 1.5.615.406.315.708.713.908 1.192.2.48.3 1.01.3 1.59 0 .585-.1 1.118-.3 1.598-.2.48-.502.877-.907 1.192-.4.316-.9.52-1.5.615a6.16 6.16 0 01-.832.06h-2.798v3.878h-1.568zm1.568-5.362h2.737c.1 0 .21-.006.33-.015a2.49 2.49 0 00.353-.053 1.54 1.54 0 00.772-.412c.195-.205.335-.44.42-.705a2.52 2.52 0 000-1.583 1.753 1.753 0 00-.42-.697 1.512 1.512 0 00-.772-.42 1.92 1.92 0 00-.353-.06c-.12-.01-.23-.015-.33-.015h-2.737v3.96zm7.577 5.362V10.904h1.568v11.025h-1.568zm5.698.225c-.6 0-1.102-.11-1.507-.33a2.35 2.35 0 01-.923-.885 2.465 2.465 0 01-.307-1.215c0-.41.072-.77.217-1.08.145-.31.36-.572.645-.787a3.45 3.45 0 011.05-.533c.36-.105.768-.198 1.223-.277.455-.08.932-.155 1.432-.226l1.5-.21-.57.316c.01-.636-.125-1.105-.405-1.41-.275-.31-.75-.465-1.425-.465-.425 0-.815.1-1.17.3-.355.194-.602.52-.742.974l-1.463-.45a3.03 3.03 0 011.14-1.657c.565-.41 1.315-.615 2.25-.615.725 0 1.355.125 1.89.375.54.245.935.635 1.185 1.17.13.265.21.545.24.84.03.295.045.613.045.953v4.987h-1.387v-1.852l.27.24c-.335.62-.763 1.082-1.283 1.387-.515.3-1.15.45-1.905.45zm.278-1.282c.445 0 .827-.078 1.147-.233.32-.16.578-.363.773-.607a1.9 1.9 0 00.382-.765c.085-.24.133-.51.143-.81.015-.3.022-.54.022-.72l.51.187-1.35.203c-.405.06-.772.12-1.102.18a6.603 6.603 0 00-.87.202 2.935 2.935 0 00-.578.27 1.323 1.323 0 00-.397.383c-.095.15-.143.332-.143.547 0 .21.053.405.158.585.105.175.265.315.48.42.215.105.49.158.825.158zm6.207 4.657l1.567-4.267.023 1.26-3.533-8.693h1.635l2.64 6.712h-.48l2.52-6.712h1.59l-4.47 11.7h-1.492zM33.459 8.796a2.44 2.44 0 01-.934-.175 2.112 2.112 0 01-.742-.518 2.382 2.382 0 01-.49-.826 3.254 3.254 0 01-.175-1.106c0-.543.099-1.01.297-1.4.198-.392.474-.693.826-.903a2.313 2.313 0 011.218-.318c.593 0 1.065.137 1.417.413.355.275.597.655.725 1.14l-.742.134a1.513 1.513 0 00-.497-.721c-.229-.18-.516-.271-.861-.273-.357-.003-.654.077-.892.238a1.47 1.47 0 00-.532.679 2.66 2.66 0 00-.182 1.011c-.003.385.056.722.174 1.012.12.287.298.51.536.672.24.16.539.242.896.245.287.004.533-.048.739-.158a1.23 1.23 0 00.493-.49c.121-.215.2-.478.235-.79h-.98v-.589h1.757a5.275 5.275 0 01.014.298c0 .466-.09.883-.27 1.25a2.06 2.06 0 01-.784.864c-.343.207-.758.311-1.246.311zm4.674 0c-.376 0-.706-.082-.99-.245a1.741 1.741 0 01-.662-.69 2.172 2.172 0 01-.235-1.028c0-.413.077-.772.231-1.075.156-.303.373-.538.651-.703.278-.166.6-.249.97-.249.385 0 .712.09.983.27.27.177.473.43.606.76.135.328.189.719.16 1.172h-.73v-.266c-.006-.439-.09-.763-.253-.973-.16-.21-.407-.315-.738-.315-.367 0-.642.115-.826.346-.185.231-.277.565-.277 1.001 0 .415.092.737.277.966.184.226.45.34.798.34a1.1 1.1 0 00.591-.154c.168-.105.299-.255.392-.448l.718.227c-.147.338-.37.601-.669.788a1.861 1.861 0 01-.997.276zm-1.348-1.788v-.57h2.699v.57h-2.699zm6.01 1.683a3.132 3.132 0 01-.7.06 1.585 1.585 0 01-.612-.133.835.835 0 01-.406-.385 1.127 1.127 0 01-.133-.476 19.805 19.805 0 01-.007-.553V3.86h.735v3.31c0 .151.002.283.004.395a.623.623 0 00.073.284.499.499 0 00.4.248c.184.019.4.01.647-.024v.62zM40.214 5.5v-.588h2.583V5.5h-2.583zm4.851-1.207v-.71h.732v.71h-.732zm0 4.4v-3.78h.732v3.78h-.732zm3.946 0a3.132 3.132 0 01-.7.059 1.584 1.584 0 01-.613-.133.835.835 0 01-.406-.385 1.125 1.125 0 01-.133-.476 19.427 19.427 0 01-.007-.553V3.86h.735v3.31c0 .151.001.283.004.395a.61.61 0 00.073.284.499.499 0 00.4.248c.184.019.4.01.647-.024v.62zM46.428 5.5v-.588h2.583V5.5h-2.583zm6.422 3.297c-.377 0-.705-.085-.983-.255a1.723 1.723 0 01-.644-.704 2.31 2.31 0 01-.224-1.04c0-.394.077-.74.231-1.039a1.7 1.7 0 01.648-.7c.277-.168.601-.252.972-.252.379 0 .706.085.984.256.278.17.492.404.644.703.152.299.228.643.228 1.033 0 .394-.078.742-.231 1.043a1.721 1.721 0 01-.644.703 1.856 1.856 0 01-.98.252zm0-.69c.362 0 .632-.12.809-.363.18-.245.27-.56.27-.945 0-.395-.091-.71-.273-.945-.18-.238-.449-.357-.806-.357-.244 0-.446.056-.605.168a.974.974 0 00-.353.458 1.82 1.82 0 00-.116.676c0 .396.091.714.273.952.182.238.45.357.801.357zm5.278.585V6.833a2.74 2.74 0 00-.039-.452 1.353 1.353 0 00-.14-.434.82.82 0 00-.29-.322.869.869 0 00-.487-.122c-.13 0-.254.022-.37.066a.774.774 0 00-.309.207 1.043 1.043 0 00-.206.378 1.925 1.925 0 00-.074.57l-.455-.171c0-.343.064-.646.193-.907.128-.263.312-.469.553-.616.24-.147.53-.22.871-.22.261 0 .48.042.658.126.178.084.321.194.43.332.113.136.198.284.256.445.058.16.098.318.12.472.02.154.03.29.03.406v2.1h-.741zm-2.657 0v-3.78h.655v1.092h.087v2.688h-.742zM4.166 1.454a2.932 2.932 0 00-2.866.007l10.539 9.742 3.54-3.547L4.167 1.454zm-3.483.949A2.768 2.768 0 00.277 3.84v17.844c0 .503.135.982.379 1.4l10.621-10.77L.683 2.403zm19.374 7.987l-3.446-1.827-3.872 3.717 4.746 4.203 2.574-1.364c.926-.493 1.48-1.377 1.48-2.366-.001-.988-.554-1.872-1.482-2.364zm-7.837 3.013l-10.623 10.6c.461.262.967.4 1.476.4.491 0 .985-.124 1.438-.373l12.046-6.634-4.337-3.993z" fill="#000"/></svg>
